public/images/logos/jerome-dreyfuss.svg

<svg width="1348" height="89" viewBox="0 0 1348 89" fill="none" xmlns="http://www.w3.org/2000/svg">
<path d="M16.4349 54.7691V56.7089C16.5856 63.2127 17.2821 67.7959 18.5247 70.4583C19.8048 73.0829 22.5157 74.3946 26.6574 74.3946C30.7614 74.3946 33.4723 72.9494 34.7901 70.0589C35.5809 68.3474 35.9762 65.4568 35.9762 61.3871V2.56731H53.3713V61.1019C53.3713 68.2523 52.1476 73.9197 49.7002 78.1032C45.5586 85.1778 38.0847 88.7144 27.2787 88.7144C16.4726 88.7144 9.2247 85.8618 5.53481 80.1568C1.84492 74.4138 0 66.5978 0 56.7089V54.7691H16.4349Z" fill="#222222"/>
<path d="M132.214 17.4577H88.1613V35.3147H128.6V49.9198H88.1613V71.542H134.247V86.6608H71.1619V2.56731H132.214V17.4577Z" fill="#222222"/>
<path d="M165.197 17.1724V39.7647H184.908C188.823 39.7647 191.76 39.3083 193.718 38.3955C197.182 36.7981 198.914 33.6412 198.914 28.925C198.914 23.8284 197.239 20.4053 193.887 18.6558C192.005 17.6668 189.181 17.1724 185.416 17.1724H165.197ZM189.031 2.56731C194.866 2.68141 199.347 3.40406 202.472 4.73525C205.635 6.06644 208.308 8.02517 210.492 10.6115C212.299 12.7415 213.73 15.0995 214.784 17.6859C215.838 20.2722 216.365 23.2198 216.365 26.5288C216.365 30.5224 215.368 34.4589 213.372 38.3384C211.377 42.1799 208.082 44.8993 203.489 46.4968C207.329 48.0561 210.04 50.2811 211.622 53.1717C213.24 56.0243 214.05 60.3982 214.05 66.2935V71.9419C214.05 75.7833 214.2 78.3881 214.502 79.7576C214.953 81.9254 216.008 83.5227 217.665 84.5502V86.6608H198.519C197.991 84.7972 197.615 83.2949 197.389 82.1539C196.937 79.7955 196.692 77.3806 196.655 74.9079L196.542 67.0923C196.467 61.7294 195.487 58.1542 193.605 56.3666C191.76 54.579 188.277 53.6852 183.156 53.6852H165.197V86.6608H148.197V2.56731H189.031Z" fill="#222222"/>
<path d="M268.212 74.1097C275.102 74.1097 280.561 71.542 284.591 66.4077C288.657 61.273 290.69 53.9704 290.69 44.4999C290.69 35.0675 288.657 27.784 284.591 22.6493C280.561 17.4767 275.102 14.8903 268.212 14.8903C261.322 14.8903 255.824 17.4577 251.72 22.5923C247.616 27.7269 245.564 35.0294 245.564 44.4999C245.564 53.9704 247.616 61.273 251.72 66.4077C255.824 71.542 261.322 74.1097 268.212 74.1097ZM308.085 44.4999C308.085 59.5995 303.887 71.1619 295.491 79.1871C289.203 85.729 280.11 89 268.212 89C256.314 89 247.221 85.729 240.933 79.1871C232.499 71.1619 228.282 59.5995 228.282 44.4999C228.282 29.0961 232.499 17.5337 240.933 9.81281C247.221 3.27094 256.314 0 268.212 0C280.11 0 289.203 3.27094 295.491 9.81281C303.887 17.5337 308.085 29.0961 308.085 44.4999Z" fill="#222222"/>
<path d="M376.593 2.56731H401.612V86.6608H385.403V29.7807C385.403 28.1453 385.422 25.8632 385.459 22.9346C385.497 19.9679 385.516 17.6859 385.516 16.0885L369.758 86.6608H352.872L337.227 16.0885C337.227 17.6859 337.246 19.9679 337.284 22.9346C337.321 25.8632 337.341 28.1453 337.341 29.7807V86.6608H321.131V2.56731H346.434L361.569 68.6897L376.593 2.56731Z" fill="#222222"/>
<path d="M479.325 17.4577H435.272V35.3147H475.711V49.9198H435.272V71.542H481.358V86.6608H418.273V2.56731H479.325V17.4577Z" fill="#222222"/>
<path d="M543.992 17.1724V72.0554H560.031C568.239 72.0554 573.962 67.967 577.201 59.7897C578.97 55.3017 579.855 49.9579 579.855 43.7583C579.855 35.2006 578.518 28.6397 575.845 24.0756C573.209 19.4735 567.938 17.1724 560.031 17.1724H543.992ZM562.968 2.56731C568.126 2.64337 572.419 3.25192 575.845 4.39294C581.681 6.33268 586.406 9.88886 590.021 15.0615C592.92 19.2453 594.897 23.7713 595.951 28.6397C597.005 33.5081 597.532 38.1482 597.532 42.5602C597.532 53.7422 595.311 63.2127 590.868 70.9717C584.844 81.4313 575.544 86.6608 562.968 86.6608H527.105V2.56731H562.968Z" fill="#222222"/>
<path d="M628.087 17.1724V39.7647H647.797C651.713 39.7647 654.65 39.3083 656.608 38.3955C660.071 36.7981 661.804 33.6412 661.804 28.925C661.804 23.8284 660.128 20.4053 656.778 18.6558C654.895 17.6668 652.071 17.1724 648.306 17.1724H628.087ZM651.92 2.56731C657.756 2.68141 662.237 3.40406 665.362 4.73525C668.524 6.06644 671.198 8.02517 673.382 10.6115C675.189 12.7415 676.62 15.0995 677.674 17.6859C678.729 20.2722 679.255 23.2198 679.255 26.5288C679.255 30.5224 678.257 34.4589 676.262 38.3384C674.267 42.1799 670.972 44.8993 666.378 46.4968C670.219 48.0561 672.93 50.2811 674.511 53.1717C676.13 56.0243 676.94 60.3982 676.94 66.2935V71.9419C676.94 75.7833 677.091 78.3881 677.392 79.7576C677.844 81.9254 678.897 83.5227 680.554 84.5502V86.6608H661.408C660.881 84.7972 660.505 83.2949 660.279 82.1539C659.827 79.7955 659.583 77.3806 659.545 74.9079L659.431 67.0923C659.356 61.7294 658.378 58.1542 656.495 56.3666C654.65 54.579 651.167 53.6852 646.047 53.6852H628.087V86.6608H611.087V2.56731H651.92Z" fill="#222222"/>
<path d="M755.841 17.4577H711.788V35.3147H752.222V49.9198H711.788V71.542H757.87V86.6608H694.787V2.56731H755.841V17.4577Z" fill="#222222"/>
<path d="M818.925 2.56731H838.638L810.793 55.0544V86.6608H793.393V55.0544L764.59 2.56731H785.091L802.377 39.1942L818.925 2.56731Z" fill="#222222"/>
<path d="M848.572 2.68141H907.597V17.4577H865.858V36.7981H902.396V51.4031H865.858V86.6608H848.572V2.68141Z" fill="#222222"/>
<path d="M919.285 2.56731H936.961V54.2557C936.961 60.0369 937.642 64.2587 938.998 66.9211C941.105 71.637 945.696 73.9954 952.778 73.9954C959.818 73.9954 964.394 71.637 966.502 66.9211C967.857 64.2587 968.532 60.0369 968.532 54.2557V2.56731H986.208V54.2557C986.208 63.1937 984.838 70.154 982.085 75.1364C976.969 84.2646 967.197 88.8286 952.778 88.8286C938.359 88.8286 928.566 84.2646 923.408 75.1364C920.661 70.154 919.285 63.1937 919.285 54.2557V2.56731Z" fill="#222222"/>
<path d="M1015.46 60.7025C1015.99 64.544 1017.03 67.4155 1018.57 69.3173C1021.4 72.778 1026.24 74.5088 1033.08 74.5088C1037.19 74.5088 1040.52 74.0525 1043.08 73.14C1047.94 71.3901 1050.37 68.1382 1050.37 63.3839C1050.37 60.6074 1049.16 58.4585 1046.75 56.9372C1044.35 55.4538 1040.56 54.1416 1035.4 53.0006L1026.59 51.0038C1017.93 49.026 1011.95 46.8771 1008.63 44.557C1003.03 40.6775 1000.22 34.6111 1000.22 26.3577C1000.22 18.8269 1002.93 12.5703 1008.35 7.58783C1013.77 2.60534 1021.74 0.114102 1032.24 0.114102C1041.01 0.114102 1048.49 2.47222 1054.66 7.18848C1060.87 11.8666 1064.13 18.6748 1064.43 27.6128H1047.72C1047.41 22.5543 1045.23 18.96 1041.17 16.8301C1038.45 15.4229 1035.09 14.7192 1031.05 14.7192C1026.57 14.7192 1022.99 15.6321 1020.33 17.4577C1017.65 19.2833 1016.32 21.8316 1016.32 25.1025C1016.32 28.1072 1017.63 30.3512 1020.27 31.8346C1021.96 32.8235 1025.58 33.9835 1031.11 35.3147L1045.45 38.7948C1051.74 40.3162 1056.49 42.3511 1059.69 44.8993C1064.65 48.8549 1067.15 54.579 1067.15 62.0717C1067.15 69.7547 1064.22 76.1446 1058.39 81.2407C1052.59 86.2995 1044.38 88.8286 1033.77 88.8286C1022.92 88.8286 1014.39 86.3374 1008.18 81.3549C1001.97 76.3346 998.86 69.4503 998.86 60.7025H1015.46Z" fill="#222222"/>
<path d="M1092.61 60.7025C1093.14 64.544 1094.17 67.4155 1095.72 69.3173C1098.55 72.778 1103.39 74.5088 1110.23 74.5088C1114.34 74.5088 1117.67 74.0525 1120.23 73.14C1125.09 71.3901 1127.52 68.1382 1127.52 63.3839C1127.52 60.6074 1126.31 58.4585 1123.9 56.9372C1121.49 55.4538 1117.71 54.1416 1112.55 53.0006L1103.74 51.0038C1095.08 49.026 1089.09 46.8771 1085.78 44.557C1080.17 40.6775 1077.36 34.6111 1077.36 26.3577C1077.36 18.8269 1080.07 12.5703 1085.5 7.58783C1090.92 2.60534 1098.89 0.114102 1109.39 0.114102C1118.16 0.114102 1125.64 2.47222 1131.81 7.18848C1138.02 11.8666 1141.28 18.6748 1141.58 27.6128H1124.87C1124.56 22.5543 1122.38 18.96 1118.31 16.8301C1115.6 15.4229 1112.23 14.7192 1108.2 14.7192C1103.72 14.7192 1100.14 15.6321 1097.47 17.4577C1094.8 19.2833 1093.46 21.8316 1093.46 25.1025C1093.46 28.1072 1094.78 30.3512 1097.42 31.8346C1099.11 32.8235 1102.73 33.9835 1108.26 35.3147L1122.6 38.7948C1128.89 40.3162 1133.64 42.3511 1136.84 44.8993C1141.8 48.8549 1144.29 54.579 1144.29 62.0717C1144.29 69.7547 1141.37 76.1446 1135.54 81.2407C1129.74 86.2995 1121.53 88.8286 1110.91 88.8286C1100.07 88.8286 1091.54 86.3374 1085.33 81.3549C1079.12 76.3346 1076.01 69.4503 1076.01 60.7025H1092.61Z" fill="#222222"/>
<path fill-rule="evenodd" clip-rule="evenodd" d="M1312.63 32.6112C1309.73 34.5674 1306.33 35.6112 1302.83 35.6106C1298.16 35.6106 1293.67 33.735 1290.37 30.3964C1287.05 27.0579 1285.2 22.5299 1285.2 17.8086C1285.2 14.2867 1286.23 10.8438 1288.17 7.91521C1290.11 4.98668 1292.86 2.70402 1296.09 1.35598C1299.31 0.00793531 1302.86 -0.344944 1306.28 0.341971C1309.7 1.02889 1312.85 2.72474 1315.31 5.21505C1317.78 7.70536 1319.46 10.8783 1320.14 14.3325C1320.82 17.7866 1320.47 21.3669 1319.13 24.6205C1317.8 27.8742 1315.54 30.6549 1312.63 32.6112ZM1275.32 85.6833C1278.81 85.6833 1282.21 84.6387 1285.12 82.6823C1288.02 80.7258 1290.27 77.9447 1291.62 74.6909C1292.95 71.4371 1293.3 67.857 1292.62 64.403C1291.94 60.9491 1290.25 57.7765 1287.78 55.2865C1285.32 52.7965 1282.18 51.101 1278.76 50.4144C1275.33 49.7277 1271.78 50.0808 1268.56 51.4289C1265.34 52.777 1262.59 55.0597 1260.65 57.9882C1258.71 60.9166 1257.68 64.3595 1257.68 67.8811C1257.68 70.2192 1258.13 72.5345 1259.02 74.6945C1259.9 76.8544 1261.2 78.8173 1262.84 80.4702C1264.48 82.1232 1266.42 83.4349 1268.57 84.3288C1270.7 85.2235 1273 85.6833 1275.32 85.6833ZM1330.35 85.6833C1333.84 85.6841 1337.26 84.6401 1340.16 82.6837C1343.06 80.7273 1345.32 77.9468 1346.65 74.693C1347.99 71.4392 1348.34 67.8592 1347.66 64.405C1346.98 60.9508 1345.3 57.778 1342.84 55.2877C1340.37 52.7974 1337.22 51.1015 1333.8 50.4146C1330.37 49.7277 1326.83 50.0806 1323.6 51.4286C1320.38 52.7767 1317.63 55.0593 1315.69 57.9878C1313.76 60.9164 1312.72 64.3593 1312.72 67.8811C1312.72 70.2189 1313.17 72.5338 1314.06 74.6937C1314.95 76.8537 1316.25 78.8158 1317.89 80.4688C1319.52 82.1218 1321.47 83.4334 1323.6 84.3281C1325.75 85.2228 1328.04 85.6833 1330.35 85.6833Z" fill="#222222"/>
</svg>

<svg xmlns="http://www.w3.org/2000/svg" width="1348" height="89" fill="none"><path fill="#222" d="M16.435 54.77v1.939c.15 6.504.847 11.087 2.09 13.75 1.28 2.624 3.99 3.936 8.132 3.936 4.104 0 6.815-1.446 8.133-4.336.79-1.712 1.186-4.602 1.186-8.672V2.567h17.395v58.535c0 7.15-1.223 12.818-3.67 17.001-4.142 7.075-11.616 10.611-22.422 10.611-10.806 0-18.054-2.852-21.744-8.557C1.845 74.414 0 66.597 0 56.709v-1.94h16.435ZM132.214 17.458H88.161v17.857H128.6V49.92H88.161v21.622h46.086v15.119H71.162V2.567h61.052v14.89ZM165.197 17.172v22.593h19.711c3.915 0 6.852-.457 8.81-1.37 3.464-1.597 5.196-4.754 5.196-9.47 0-5.097-1.675-8.52-5.027-10.27-1.882-.988-4.706-1.483-8.471-1.483h-20.219Zm23.834-14.605c5.835.114 10.316.837 13.441 2.168 3.163 1.331 5.836 3.29 8.02 5.876a26.085 26.085 0 0 1 4.292 7.075c1.054 2.586 1.581 5.534 1.581 8.843 0 3.993-.997 7.93-2.993 11.81-1.995 3.84-5.29 6.56-9.883 8.158 3.84 1.56 6.551 3.784 8.133 6.675 1.618 2.852 2.428 7.226 2.428 13.121v5.649c0 3.841.15 6.446.452 7.816.451 2.167 1.506 3.765 3.163 4.792v2.11h-19.146c-.528-1.863-.904-3.365-1.13-4.506a41.738 41.738 0 0 1-.734-7.246l-.113-7.816c-.075-5.363-1.055-8.938-2.937-10.725-1.845-1.788-5.328-2.682-10.449-2.682h-17.959v32.976h-17V2.567h40.834ZM268.212 74.11c6.89 0 12.349-2.568 16.379-7.702 4.066-5.135 6.099-12.438 6.099-21.908 0-9.432-2.033-16.716-6.099-21.85-4.03-5.173-9.489-7.76-16.379-7.76-6.89 0-12.388 2.568-16.492 7.702-4.104 5.135-6.156 12.437-6.156 21.908 0 9.47 2.052 16.773 6.156 21.908 4.104 5.134 9.602 7.702 16.492 7.702Zm39.873-29.61c0 15.1-4.198 26.662-12.594 34.687C289.203 85.73 280.11 89 268.212 89s-20.991-3.271-27.279-9.813c-8.434-8.025-12.651-19.587-12.651-34.687 0-15.404 4.217-26.966 12.651-34.687C247.221 3.27 256.314 0 268.212 0s20.991 3.27 27.279 9.813c8.396 7.72 12.594 19.283 12.594 34.687ZM376.593 2.567h25.019v84.094h-16.209V29.78c0-1.636.019-3.918.056-6.846.038-2.967.057-5.25.057-6.846L369.758 86.66h-16.886l-15.645-70.573c0 1.598.019 3.88.057 6.847.037 2.928.057 5.21.057 6.846v56.88h-16.21V2.567h25.303l15.135 66.123 15.024-66.123ZM479.325 17.458h-44.053v17.857h40.439V49.92h-40.439v21.622h46.086v15.119h-63.085V2.567h61.052v14.89ZM543.992 17.172v54.883h16.039c8.208 0 13.931-4.088 17.17-12.265 1.769-4.488 2.654-9.832 2.654-16.032 0-8.557-1.337-15.118-4.01-19.682-2.636-4.602-7.907-6.904-15.814-6.904h-16.039Zm18.976-14.605c5.158.076 9.451.685 12.877 1.826 5.836 1.94 10.561 5.496 14.176 10.668 2.899 4.184 4.876 8.71 5.93 13.579 1.054 4.868 1.581 9.508 1.581 13.92 0 11.182-2.221 20.653-6.664 28.412-6.024 10.46-15.324 15.689-27.9 15.689h-35.863V2.567h35.863ZM628.087 17.172v22.593h19.71c3.916 0 6.853-.457 8.811-1.37 3.463-1.597 5.196-4.754 5.196-9.47 0-5.097-1.676-8.52-5.026-10.27-1.883-.988-4.707-1.483-8.472-1.483h-20.219ZM651.92 2.567c5.836.114 10.317.837 13.442 2.168 3.162 1.331 5.836 3.29 8.02 5.876a26.085 26.085 0 0 1 4.292 7.075c1.055 2.586 1.581 5.534 1.581 8.843 0 3.993-.998 7.93-2.993 11.81-1.995 3.84-5.29 6.56-9.884 8.158 3.841 1.56 6.552 3.784 8.133 6.675 1.619 2.852 2.429 7.226 2.429 13.121v5.649c0 3.841.151 6.446.452 7.816.452 2.167 1.505 3.765 3.162 4.792v2.11h-19.146c-.527-1.863-.903-3.365-1.129-4.506a41.836 41.836 0 0 1-.734-7.246l-.114-7.816c-.075-5.363-1.053-8.938-2.936-10.725-1.845-1.788-5.328-2.682-10.448-2.682h-17.96v32.976h-17V2.567h40.833ZM755.841 17.458h-44.053v17.857h40.434V49.92h-40.434v21.622h46.082v15.119h-63.083V2.567h61.054v14.89ZM818.925 2.567h19.713l-27.845 52.487v31.607h-17.4V55.054L764.59 2.567h20.501l17.286 36.627 16.548-36.627ZM848.572 2.681h59.025v14.777h-41.739v19.34h36.538v14.605h-36.538v35.258h-17.286V2.68ZM919.285 2.567h17.676v51.689c0 5.78.681 10.003 2.037 12.665 2.107 4.716 6.698 7.074 13.78 7.074 7.04 0 11.616-2.358 13.724-7.074 1.355-2.662 2.03-6.884 2.03-12.665V2.567h17.676v51.689c0 8.938-1.37 15.898-4.123 20.88-5.116 9.129-14.888 13.693-29.307 13.693-14.419 0-24.212-4.564-29.37-13.693-2.747-4.982-4.123-11.942-4.123-20.88V2.567ZM1015.46 60.703c.53 3.841 1.57 6.712 3.11 8.614 2.83 3.461 7.67 5.192 14.51 5.192 4.11 0 7.44-.457 10-1.369 4.86-1.75 7.29-5.002 7.29-9.756 0-2.777-1.21-4.925-3.62-6.447-2.4-1.483-6.19-2.795-11.35-3.936l-8.81-1.997c-8.66-1.978-14.64-4.127-17.96-6.447-5.6-3.88-8.41-9.946-8.41-18.2 0-7.53 2.71-13.787 8.13-18.77 5.42-4.982 13.39-7.473 23.89-7.473 8.77 0 16.25 2.358 22.42 7.074 6.21 4.679 9.47 11.487 9.77 20.425h-16.71c-.31-5.059-2.49-8.653-6.55-10.783-2.72-1.407-6.08-2.11-10.12-2.11-4.48 0-8.06.912-10.72 2.738-2.68 1.825-4.01 4.374-4.01 7.645 0 3.004 1.31 5.248 3.95 6.732 1.69.989 5.31 2.148 10.84 3.48l14.34 3.48c6.29 1.521 11.04 3.556 14.24 6.104 4.96 3.956 7.46 9.68 7.46 17.173 0 7.683-2.93 14.073-8.76 19.169-5.8 5.058-14.01 7.588-24.62 7.588-10.85 0-19.38-2.492-25.59-7.474-6.21-5.02-9.32-11.905-9.32-20.653h16.6ZM1092.61 60.703c.53 3.841 1.56 6.712 3.11 8.614 2.83 3.461 7.67 5.192 14.51 5.192 4.11 0 7.44-.457 10-1.369 4.86-1.75 7.29-5.002 7.29-9.756 0-2.777-1.21-4.925-3.62-6.447-2.41-1.483-6.19-2.795-11.35-3.936l-8.81-1.997c-8.66-1.978-14.65-4.127-17.96-6.447-5.61-3.88-8.42-9.946-8.42-18.2 0-7.53 2.71-13.787 8.14-18.77 5.42-4.982 13.39-7.473 23.89-7.473 8.77 0 16.25 2.358 22.42 7.074 6.21 4.679 9.47 11.487 9.77 20.425h-16.71c-.31-5.059-2.49-8.653-6.56-10.783-2.71-1.407-6.08-2.11-10.11-2.11-4.48 0-8.06.912-10.73 2.738-2.67 1.825-4.01 4.374-4.01 7.645 0 3.004 1.32 5.248 3.96 6.732 1.69.989 5.31 2.148 10.84 3.48l14.34 3.48c6.29 1.521 11.04 3.556 14.24 6.104 4.96 3.956 7.45 9.68 7.45 17.173 0 7.683-2.92 14.073-8.75 19.169-5.8 5.058-14.01 7.588-24.63 7.588-10.84 0-19.37-2.492-25.58-7.474-6.21-5.02-9.32-11.905-9.32-20.653h16.6Z"/><path fill="#222" fill-rule="evenodd" d="M1312.63 32.611c-2.9 1.956-6.3 3-9.8 3-4.67 0-9.16-1.876-12.46-5.215a17.838 17.838 0 0 1-5.17-12.587c0-3.522 1.03-6.965 2.97-9.894a17.661 17.661 0 0 1 7.92-6.559c3.22-1.348 6.77-1.7 10.19-1.014 3.42.687 6.57 2.383 9.03 4.873a17.836 17.836 0 0 1 4.83 9.117c.68 3.455.33 7.035-1.01 10.288a17.683 17.683 0 0 1-6.5 7.991Zm-37.31 53.072c3.49 0 6.89-1.044 9.8-3 2.9-1.957 5.15-4.738 6.5-7.992a18.01 18.01 0 0 0 1-10.288 17.849 17.849 0 0 0-4.84-9.117 17.505 17.505 0 0 0-19.22-3.858 17.69 17.69 0 0 0-7.91 6.56 17.911 17.911 0 0 0-2.97 9.893c0 2.338.45 4.653 1.34 6.814.88 2.16 2.18 4.122 3.82 5.775a17.566 17.566 0 0 0 5.73 3.859c2.13.895 4.43 1.354 6.75 1.354Zm55.03 0c3.49.001 6.91-1.043 9.81-3a17.726 17.726 0 0 0 6.49-7.99 17.929 17.929 0 0 0-3.81-19.405 17.63 17.63 0 0 0-9.04-4.873 17.512 17.512 0 0 0-10.2 1.014 17.689 17.689 0 0 0-7.91 6.559 17.994 17.994 0 0 0-2.97 9.893c0 2.338.45 4.653 1.34 6.813.89 2.16 2.19 4.122 3.83 5.775a17.603 17.603 0 0 0 5.71 3.86c2.15.894 4.44 1.354 6.75 1.354Z" clip-rule="evenodd"/></svg>
